sites/sveltevietnam.dev/src/routes/(site)/_page/sections/resources/images/rect-washer.svg

<svg width="158" height="124" viewBox="0 0 158 124" fill="none" xmlns="http://www.w3.org/2000/svg">
<path d="M110.759 28.4901L131.956 67.4594L69.8279 54.8048L52.0881 17.3608L110.759 28.4901ZM71.3696 53.2429L109.616 61.0316L99.011 41.5547L62.2372 33.962L71.3696 53.2429ZM100.486 39.9824L112.252 61.567L128.191 64.8136L109.302 30.0755L55.5788 19.8891L61.2597 31.8777L100.486 39.9824Z" fill="var(--color-primary-on-surface)"/>
<path d="M122.784 19.1759L158 83.0525L131.108 123.014L29.2557 103.87L4.57764e-05 40.4292L27.2164 0L122.784 19.1759ZM130.07 120.963L155.15 83.6108L58.0697 64.1154L31.7459 102.48L130.07 120.963ZM58.3601 62.3056L154.917 81.6945L121.331 20.7495L29.522 2.33175L58.3601 62.3056ZM2.36615 40.5954L30.2633 101.096L56.3874 62.9937L27.5553 3.06138L2.36615 40.5954Z" fill="var(--color-primary-on-surface)"/>
<path d="M31.8318 102.484L130.054 121.03L155.107 83.5496L58.1351 63.9873L31.8318 102.484Z" fill="var(--color-primary)"/>
<path d="M27.4185 2.9762L2.31485 40.5778L30.104 101.189L56.139 63.0206L27.4185 2.9762Z" fill="var(--color-primary)"/>
<path d="M121.472 20.9043L155.107 81.8443L58.4091 62.457L29.5168 2.48022L121.472 20.9043ZM69.9599 54.943L132.359 67.5226L111.07 28.7843L52.1428 17.7211L69.9599 54.943Z" fill="var(--color-primary-surface)"/>
<path d="M55.5602 19.8411L61.2654 31.8874L100.669 40.0285L112.473 61.7172L128.483 64.9794L109.513 30.0818L55.5602 19.8411Z" fill="var(--color-primary)"/>
</svg>

<svg xmlns="http://www.w3.org/2000/svg" fill="none" viewBox="0 0 158 124">
  <path fill="var(--color-primary-on-surface)" d="m110.8 28.5 21.2 39-62.2-12.7-17.7-37.4 58.7 11ZM71.4 53.2l38.2 7.8L99 41.6 62.2 34l9.2 19.2Zm29-13.2 11.9 21.6 15.9 3.2-18.9-34.7-53.7-10.2 5.7 12 39.2 8Z"/>
  <path fill="var(--color-primary-on-surface)" d="M122.8 19.2 158 83l-26.9 40-101.8-19.2L0 40.4 27.2 0l95.6 19.2ZM130 121l25-37.4-97-19.5-26.4 38.4L130 121ZM58.4 62.3l96.5 19.4-33.6-61L29.5 2.3l28.9 60Zm-56-21.7 27.9 60.5 26-38.1L27.7 3 2.4 40.7Z"/>
  <path fill="var(--color-primary)" d="m31.8 102.5 98.3 18.5 25-37.5-97-19.5-26.3 38.5ZM27.4 3l-25 37.6L30 101.2 56 63 27.4 3Z"/>
  <path fill="var(--color-primary-surface)" d="m121.5 20.9 33.6 61-96.7-19.4-28.9-60 92 18.4ZM70 54.9l62.4 12.6L111 28.8l-59-11 18 37Z"/>
  <path fill="var(--color-primary)" d="m55.6 19.8 5.7 12 39.4 8.2 11.8 21.7 16 3.3-19-35-54-10.2Z"/>
</svg>
